X: 68
T: Wheatley Processional
O: Wheatley
B: Nan Fleming-Williams and Pat Shaw "English Dance Airs" Book 3 (1968, 1984)
Z: 1997 by John Chambers <jc@trillian.mit.edu>
P: AB
M: C|
L: 1/4
K: G
e \
| "G"dB "C"A>E | EE "D7"D>D | "G"GB "C"AG | "D7"A2 "C"e2 \
| "G"dB "C"A>E | EE "D7"D>D | "Em"GB "Am"AG | "D7"d2 "G"G ||
|| B \
| "G"Bd "C"g>e | "G"dB "D7"A>G | "G"Bd gd | "C"e2 g>e \
| "G"dB "C"A>E | EE "D7"D>D | "Em"GB "Am"AG | "D7"d2 "G"G |]


